X: 8881
T: Cup Of Tea, The
R: reel
M: 4/4
K: Edorian
|:"Em" BAGF GE ~E2|GEBE GE ~E2|BAGF GE ~E2|"D"FDAG FD ~D2|
"Em" BAGF GE ~E2|GEBE GE ~E2|"G"BAGF GABc|"D"dBAG FD ~D2:|
K:D
|:"D"d2 (3(efg) "A"fdec|"D"d2 (3(efg) "Bm"fB ~B2|"D"d2 (3(efg) "A"fdec|"A"dBAG "D"FD ~D2|
"D"d2 (3(efg) "G"fdec|"D"dfaf "A"g2 fg|"D"af (3gfe "G"fdec|"A"dBAG "D"FD ~D2:|
|:"D"FAdA FAdA|"D"FAdA "A"FE E2|"D"FAdA "G"BABc|"A"dBAG "D"FD ~D2|
"D"FAdA FAdA|"D"FAde "A"fe e2|"G"fdec dBAF|"A"GBAG "D"FD ~D2:|

